svgs/light/file-user.svg

<svg xmlns="http://www.w3.org/2000/svg" viewBox="0 0 384 512"><!-- Font Awesome Pro 6.0.0-alpha2 by @fontawesome - https://fontawesome.com License - https://fontawesome.com/license (Commercial License) --><path d="M365.256 125.254L258.746 18.746C246.744 6.742 230.465 0 213.49 0H64C28.654 0 0 28.654 0 64V448C0 483.346 28.654 512 64 512H320C355.348 512 384 483.346 384 448V170.51C384 153.535 377.258 137.258 365.256 125.254ZM224 34.076C228.477 35.643 232.666 37.922 236.119 41.375L342.627 147.879C346.08 151.332 348.357 155.523 349.924 160H240C231.188 160 224 152.828 224 144V34.076ZM272 480H112V464C112 437.49 133.49 416 160 416H224C250.51 416 272 437.49 272 464V480ZM352 448C352 465.645 337.645 480 320 480H304V464C304 419.816 268.184 384 224 384H160C115.816 384 80 419.816 80 464V480H64C46.355 480 32 465.645 32 448V64C32 46.355 46.355 32 64 32H192V144C192 170.469 213.531 192 240 192H352V448ZM192 224C156.654 224 128 252.654 128 288S156.654 352 192 352S256 323.346 256 288S227.346 224 192 224ZM192 320C174.355 320 160 305.645 160 288S174.355 256 192 256S224 270.355 224 288S209.645 320 192 320Z"/></svg>

<svg xmlns="http://www.w3.org/2000/svg" viewBox="0 0 384 512"><!--! Font Awesome Pro 6.3.0 by @fontawesome - https://fontawesome.com License - https://fontawesome.com/license (Commercial License) Copyright 2023 Fonticons, Inc. --><path d="M365.3 125.3l-106.5-106.5C246.7 6.742 230.5 0 213.5 0H64C28.65 0 0 28.65 0 64l.0065 384c0 35.35 28.65 64 64 64H320c35.35 0 64-28.65 64-64V170.5C384 153.5 377.3 137.3 365.3 125.3zM224 34.08c4.477 1.566 8.666 3.846 12.12 7.299l106.5 106.5C346.1 151.3 348.4 155.5 349.9 160H240C231.2 160 224 152.8 224 144V34.08zM272 480h-160v-16C112 437.5 133.5 416 160 416h64c26.51 0 48 21.49 48 48V480zM352 448c0 17.64-14.36 32-32 32h-16v-16c0-44.18-35.82-80-80-80H160c-44.18 0-80 35.82-80 80V480H64c-17.64 0-32-14.36-32-32V64c0-17.64 14.36-32 32-32h128v112C192 170.5 213.5 192 240 192H352V448zM192 224C156.7 224 128 252.7 128 288s28.65 64 64 64s64-28.65 64-64S227.3 224 192 224zM192 320c-17.64 0-32-14.36-32-32s14.36-32 32-32s32 14.36 32 32S209.6 320 192 320z"/></svg>
